svg/u1f3a4.svg

<svg viewBox="0 0 128 128" xmlns="http://www.w3.org/2000/svg">
  <g>
    <path d="M77.78,11.93c10.57-10.57,27.72-10.57,38.29,0s10.57,27.72,0,38.29S84.87,64.28,74.3,53.7 S67.2,22.5,77.78,11.93z" fill="#9E9E9E"/>
    <path d="M119.43,16.04c-0.02,8.82-3.39,17.63-10.12,24.35c-10.66,10.66-26.56,12.89-39.42,6.7 c1.03,2.45,2.48,4.7,4.4,6.62c10.57,10.57,31.2,7.09,41.77-3.48C125.36,40.93,126.48,26.56,119.43,16.04z" fill="#757575"/>
    <path d="M84.02,67.06c1.92-1.92-1.69-8.65-8.06-15.02c-6.37-6.37-13.1-9.98-15.02-8.06 C59.92,45,5.22,105.37,4.67,105.92c-1.92,1.92,0.42,7.38,5.22,12.18s10.26,7.14,12.18,5.22C22.63,122.78,83,68.08,84.02,67.06z" fill="#616161"/>
    <path d="M12.37,115.63L74.3,53.7L83.22,64l-62.79,56.69C15.59,120.69,12.37,115.63,12.37,115.63z" fill="#424242"/>
    <path d="M43.42,83.33c-2.75-2.83-2.34-4.82-1.08-6.05L53.87,66.1c1.27-1.23,3.29-1.2,4.52,0.07L61,68.86 c1.23,1.27,1.2,3.29-0.07,4.52L49.4,84.56C48.14,85.78,46.17,86.16,43.42,83.33z"/>
    <circle cx="56.9" cy="70.17" r="5.21" fill="#9E9E9E"/>
    <path d="M111.54,52.79c1.11,0.73,1.37,0.85,2.61,0.36c1.23-0.49,3.15-2.55,3.42-3.21 c0.41-1.03,0.16-1.28-0.79-1.85c-3.42-2.06-9.93-6.73-20.03-16.83c-10.1-10.1-14.77-16.61-16.83-20.03c-0.57-0.95-1.05-1-2.27-0.13 c-0.75,0.54-1.8,1.63-2.49,2.85c-0.65,1.16-0.68,1.4,0.05,2.51c2.76,4.19,7.76,10.59,16.75,19.58 C100.95,45.04,107.35,50.03,111.54,52.79z" fill="#94D1E0"/>
    <path d="M93.64,59.55c-1.49-0.85-8.07-6.27-13.94-12.15c-5.57-5.59-10.46-11.63-11.26-13.05 c-0.58-1.02-2.05-1.01-2.62,0.01l-3.88,6.9c-0.82,1.47-0.89,3.25-0.15,4.76c1.26,2.56,3.29,5.63,8.92,11.26s8.7,7.66,11.26,8.92 c1.51,0.74,3.29,0.67,4.76-0.15l6.9-3.88C94.65,61.6,94.66,60.13,93.64,59.55z" fill="#82AEC0"/>
    <path d="M62.31,45.26l4.17-6.18c0.59-0.87,1.85-0.93,2.52-0.12l4.61,5.6c0.5,0.61,0.47,1.5-0.07,2.08 l-5.29,5.62c-0.64,0.68-1.72,0.66-2.33-0.04c-1.01-1.16-2.5-3.06-3.71-5.37C61.94,46.35,61.99,45.73,62.31,45.26z" fill="#94D1E0"/>
  </g>
</svg>

<svg viewBox="0 0 128 128" xmlns="http://www.w3.org/2000/svg">
  <defs/>
  <path d="M77.78,11.93 C88.35,1.36 105.5,1.36 116.07,11.93 C126.64,22.5 126.64,39.65 116.07,50.22 C105.5,60.79 84.87,64.28 74.3,53.7 C63.73,43.12 67.2,22.5 77.78,11.93 Z" fill="#9E9E9E"/>
  <path d="M119.43,16.04 C119.41,24.86 116.04,33.67 109.31,40.39 C98.65,51.05 82.75,53.28 69.89,47.09 C70.92,49.54 72.37,51.79 74.29,53.71 C84.86,64.28 105.49,60.8 116.06,50.23 C125.36,40.93 126.48,26.56 119.43,16.04 Z" fill="#757575"/>
  <path d="M84.02,67.06 C85.94,65.14 82.33,58.41 75.96,52.04 C69.59,45.67 62.86,42.06 60.94,43.98 C59.92,45 5.22,105.37 4.67,105.92 C2.75,107.84 5.09,113.3 9.89,118.1 C14.69,122.9 20.15,125.24 22.07,123.32 C22.63,122.78 83,68.08 84.02,67.06 Z" fill="#616161"/>
  <path d="M12.37,115.63 L74.3,53.7 L83.22,64 L20.43,120.69 C15.59,120.69 12.37,115.63 12.37,115.63 Z" fill="#424242"/>
  <path d="M43.42,83.33 C40.67,80.5 41.08,78.51 42.34,77.28 L53.87,66.1 C55.14,64.87 57.16,64.9 58.39,66.17 L61,68.86 C62.23,70.13 62.2,72.15 60.93,73.38 L49.4,84.56 C48.14,85.78 46.17,86.16 43.42,83.33 Z"/>
  <path d="M62.11,70.17 A5.21 5.21 0 1 1 51.69,70.17 A5.21 5.21 0 1 1 62.11,70.17 Z" fill="#9E9E9E"/>
  <path d="M111.54,52.79 C112.65,53.52 112.91,53.64 114.15,53.15 C115.38,52.66 117.3,50.6 117.57,49.94 C117.98,48.91 117.73,48.66 116.78,48.09 C113.36,46.03 106.85,41.36 96.75,31.26 C86.65,21.16 81.98,14.65 79.92,11.23 C79.35,10.28 78.87,10.23 77.65,11.1 C76.9,11.64 75.85,12.73 75.16,13.95 C74.51,15.11 74.48,15.35 75.21,16.46 C77.97,20.65 82.97,27.05 91.96,36.04 C100.95,45.04 107.35,50.03 111.54,52.79 Z" fill="#94D1E0"/>
  <path d="M93.64,59.55 C92.15,58.7 85.57,53.28 79.7,47.4 C74.13,41.81 69.24,35.77 68.44,34.35 C67.86,33.33 66.39,33.34 65.82,34.36 L61.94,41.26 C61.12,42.73 61.05,44.51 61.79,46.02 C63.05,48.58 65.08,51.65 70.71,57.28 C76.34,62.91 79.41,64.94 81.97,66.2 C83.48,66.94 85.26,66.87 86.73,66.05 L93.63,62.17 C94.65,61.6 94.66,60.13 93.64,59.55 Z" fill="#82AEC0"/>
  <path d="M62.31,45.26 L66.48,39.08 C67.07,38.21 68.33,38.15 69,38.96 L73.61,44.56 C74.11,45.17 74.08,46.06 73.54,46.64 L68.25,52.26 C67.61,52.94 66.53,52.92 65.92,52.22 C64.91,51.06 63.42,49.16 62.21,46.85 C61.94,46.35 61.99,45.73 62.31,45.26 Z" fill="#94D1E0"/>
</svg>
